public/img/logo-stacked.svg

<svg xmlns="http://www.w3.org/2000/svg" fill="none" viewBox="0 0 11730 12905"><g fill="#0C0C0C" clip-path="url(#a)"><path d="M11739 12905H1.469V0H11739v12905ZM822.752 12083.5H10917.5V821.478H822.752V12083.5Z"/><path d="M1965.46 7865.44V5046.72h711.7v2818.72h-711.7Zm568.51 0v-612.21h1355.65v612.21H2533.97Zm1834.95 0 1097.37-2818.72h687.83l1085.44 2818.72h-747.49l-815.04-2369.52h254.42l-826.97 2369.52h-735.56Zm668-493.07v-564.48h1558.5v564.48h-1558.5Zm2676.43 493.07V5046.72h699.76v2818.72h-699.76Zm564.47 0v-528.87h592.37c105.92 0 192.2-31.75 258.47-95.45 66.27-63.7 99.31-144.47 99.31-242.5 0-68.84-15.24-127.76-45.71-176.96-30.47-49.01-72.33-88.11-125.19-117.3-53.05-29.19-118.04-43.69-194.77-43.69h-584.48v-508.86h540.61c95.45 0 172.92-23.86 232.58-71.59 59.66-47.73 89.4-119.32 89.4-214.78 0-95.46-29.74-170.9-89.4-218.63-59.66-47.73-135.84-71.59-228.54-71.59h-544.65v-528.87h715.55c177.51 0 330.05 33.23 457.27 99.31 127.21 66.27 225.23 155.12 294.26 266.36 68.83 111.25 103.34 237.17 103.34 377.79 0 185.59-64.24 340.52-192.74 465.17-128.5 124.64-314.82 202.84-558.6 234.6v-242.5c267.64 31.76 474.34 118.59 620.28 260.49 145.75 141.9 218.63 319.96 218.63 534.74 0 156.4-39.84 297.57-119.32 423.5-79.49 125.93-191.46 223.95-335.93 294.26s-314.82 105.37-510.87 105.37h-691.87ZM1932.97 11416.2V8597.52h711.7v2818.68h-711.7Zm568.51 0V10804h1355.65v612.2H2501.48Zm1835.13 0 1097.37-2818.68h687.83l1085.44 2818.68h-747.49l-815.04-2369.48h254.42l-826.97 2369.48h-735.56Zm668.01-493v-564.5h1558.49v564.5H5004.62Zm2719.37 493V8597.52h699.77v2818.68h-699.77Zm564.48 0v-528.8h592.37c105.92 0 192.2-31.8 258.46-95.5 66.27-63.5 99.31-144.4 99.31-242.5 0-68.8-15.23-127.7-45.7-176.9-30.48-49.1-72.33-88.2-125.2-117.3-53.05-29.2-118.03-43.7-194.76-43.7h-584.48v-508.89h540.6c95.46 0 172.93-23.86 232.59-71.59 59.65-47.73 89.39-119.32 89.39-214.78 0-95.45-29.74-170.9-89.39-218.63-59.66-47.73-135.85-71.59-228.55-71.59h-544.64v-528.87h715.54c177.51 0 330.06 33.23 457.27 99.31 127.21 66.27 225.24 155.12 294.26 266.36 68.84 111.25 103.35 237.18 103.35 377.79 0 185.59-64.25 340.53-192.75 465.17-128.49 124.64-314.81 202.82-558.59 234.62v-242.51c267.64 31.75 474.34 118.58 620.27 260.51 145.76 141.9 218.63 319.9 218.63 534.7 0 156.4-39.83 297.6-119.32 423.5-79.48 125.9-191.46 224-335.93 294.3-144.46 70.3-314.82 105.3-510.87 105.3h-691.86ZM3300.74 4297.38c-214.78 0-413.4-37.08-596.42-111.24-182.83-74.16-342.53-176.96-479.11-308.03-136.57-131.25-242.49-285.64-318.12-463.15s-113.26-371-113.26-580.45c0-209.45 37.08-398.16 111.24-574.57 74.16-176.23 179.53-329.33 316.1-459.11 136.58-129.79 295.55-231.85 477.1-306.2 181.55-74.16 379.62-111.24 594.39-111.24 214.78 0 422.76 35.24 600.27 105.37 177.51 70.3 333.91 166.31 469.2 288.2l-477.1 481.14c-69.02-74.16-152.36-132.54-250.38-174.94-98.03-42.41-212.02-63.52-341.99-63.52-111.24 0-215.32 19.28-312.07 57.64-96.74 38.55-178.97 93.44-246.53 165.03-67.55 71.6-120.6 157.69-158.97 258.47-38.36 100.78-57.64 212.02-57.64 333.91 0 121.9 19.28 241.22 57.64 342 38.37 100.78 91.42 186.87 158.97 258.46 67.56 71.6 149.06 127.22 244.52 167.05 95.45 39.84 200.08 59.66 314.08 59.66 132.54 0 248.55-20.56 347.86-61.68 99.31-41.12 186.14-98.76 260.48-172.92l477.1 477.1c-137.86 121.89-293.53 218.08-467.18 288.2-173.66 70.13-377.05 105.37-610.37 105.37l.19-.55Zm4715.13-47.72V1430.93h711.69v2818.73h-711.69Zm568.51 0v-612.21h1355.65v612.21H8584.38ZM7437.44 2257.55c-75.63-177.51-180.81-333.37-316.1-467.19-135.11-133.82-294.26-236.62-477.09-308.21-182.84-71.6-383.11-107.39-600.27-107.39-217.16 0-417.44 35.79-600.27 107.39-182.83 71.59-341.99 174.39-477.09 308.21-135.11 133.82-240.48 288.94-316.11 465.17-75.44 176.23-113.26 367.69-113.26 574.57 0 206.89 38.37 399.64 115.28 578.44 76.92 178.98 183.57 334.64 319.96 467.18 136.58 132.54 296.28 235.89 479.11 310.05 182.84 74.16 382.93 111.25 600.27 111.25 217.35 0 412.85-36.53 594.4-109.41 181.54-72.88 339.96-176.23 475.07-310.05 135.11-133.83 240.47-289.49 316.1-467.19 75.63-177.51 113.27-369.71 113.27-576.41s-37.82-398.9-113.27-576.59v.18Zm-1745.36 162.09-539.32 416.16 539.32 416.15v286.92l-737.21-598.99v-208.17l737.21-598.99v286.92Zm335.93 1119.78h-234.23l254.24-1404.86h230.74l-250.75 1404.86Zm1091.31-599.54-737.21 598.99v-286.92l539.32-416.15-539.32-416.16v-286.92l737.21 598.99v208.17Z"/></g><defs><clipPath id="a"><path fill="#fff" d="M0 0h11730v12905H0z"/></clipPath></defs></svg>

<svg viewBox="0 0 11730 12905" fill="none" width="11730" height="12905" xmlns="http://www.w3.org/2000/svg">
<g clip-path="url(#clip0_35_17)">
<path d="M11739 12905H1.46875V0H11739V12905ZM822.752 12083.5H10917.5V821.478H822.752V12083.5Z" fill="#0C0C0C"/>
<path d="M1965.46 7865.44V5046.72H2677.16V7865.44H1965.46ZM2533.97 7865.44V7253.23H3889.62V7865.44H2533.97Z" fill="#0C0C0C"/>
<path d="M4368.92 7865.44L5466.29 5046.72H6154.12L7239.56 7865.44H6492.07L5677.03 5495.92H5931.45L5104.48 7865.44H4368.92ZM5036.92 7372.37V6807.89H6595.42V7372.37H5036.92Z" fill="#0C0C0C"/>
<path d="M7713.35 7865.44V5046.72H8413.11V7865.44H7713.35ZM8277.82 7865.44V7336.57H8870.19C8976.11 7336.57 9062.39 7304.82 9128.66 7241.12C9194.93 7177.42 9227.97 7096.65 9227.97 6998.62C9227.97 6929.78 9212.73 6870.86 9182.26 6821.66C9151.79 6772.65 9109.93 6733.55 9057.07 6704.36C9004.02 6675.17 8939.03 6660.67 8862.3 6660.67H8277.82V6151.81H8818.43C8913.88 6151.81 8991.35 6127.95 9051.01 6080.22C9110.67 6032.49 9140.41 5960.9 9140.41 5865.44C9140.41 5769.98 9110.67 5694.54 9051.01 5646.81C8991.35 5599.08 8915.17 5575.22 8822.47 5575.22H8277.82V5046.35H8993.37C9170.88 5046.35 9323.42 5079.58 9450.64 5145.66C9577.85 5211.93 9675.87 5300.78 9744.9 5412.02C9813.73 5523.27 9848.24 5649.19 9848.24 5789.81C9848.24 5975.4 9784 6130.33 9655.5 6254.98C9527 6379.62 9340.68 6457.82 9096.9 6489.58V6247.08C9364.54 6278.84 9571.24 6365.67 9717.18 6507.57C9862.93 6649.47 9935.81 6827.53 9935.81 7042.31C9935.81 7198.71 9895.97 7339.88 9816.49 7465.81C9737 7591.74 9625.03 7689.76 9480.56 7760.07C9336.09 7830.38 9165.74 7865.44 8969.69 7865.44H8277.82Z" fill="#0C0C0C"/>
<path d="M1932.97 11416.2V8597.52H2644.67V11416.2H1932.97ZM2501.48 11416.2V10804H3857.13V11416.2H2501.48Z" fill="#0C0C0C"/>
<path d="M4336.61 11416.2L5433.98 8597.52H6121.81L7207.25 11416.2H6459.76L5644.72 9046.72H5899.14L5072.17 11416.2H4336.61ZM5004.62 10923.2V10358.7H6563.11V10923.2H5004.62Z" fill="#0C0C0C"/>
<path d="M7723.99 11416.2V8597.52H8423.76V11416.2H7723.99ZM8288.47 11416.2V10887.4H8880.84C8986.76 10887.4 9073.04 10855.6 9139.3 10791.9C9205.57 10728.4 9238.61 10647.5 9238.61 10549.4C9238.61 10480.6 9223.38 10421.7 9192.91 10372.5C9162.43 10323.4 9120.58 10284.3 9067.71 10255.2C9014.66 10226 8949.68 10211.5 8872.95 10211.5H8288.47V9702.61H8829.07C8924.53 9702.61 9002 9678.75 9061.66 9631.02C9121.31 9583.29 9151.05 9511.7 9151.05 9416.24C9151.05 9320.79 9121.31 9245.34 9061.66 9197.61C9002 9149.88 8925.81 9126.02 8833.11 9126.02H8288.47V8597.15H9004.01C9181.52 8597.15 9334.07 8630.38 9461.28 8696.46C9588.49 8762.73 9686.52 8851.58 9755.54 8962.82C9824.38 9074.07 9858.89 9200 9858.89 9340.61C9858.89 9526.2 9794.64 9681.14 9666.14 9805.78C9537.65 9930.42 9351.33 10008.6 9107.55 10040.4V9797.89C9375.19 9829.64 9581.89 9916.47 9727.82 10058.4C9873.58 10200.3 9946.45 10378.3 9946.45 10593.1C9946.45 10749.5 9906.62 10890.7 9827.13 11016.6C9747.65 11142.5 9635.67 11240.6 9491.2 11310.9C9346.74 11381.2 9176.38 11416.2 8980.33 11416.2H8288.47Z" fill="#0C0C0C"/>
<path d="M3300.74 4297.38C3085.96 4297.38 2887.34 4260.3 2704.32 4186.14C2521.49 4111.98 2361.79 4009.18 2225.21 3878.11C2088.64 3746.86 1982.72 3592.47 1907.09 3414.96C1831.46 3237.45 1793.83 3043.96 1793.83 2834.51C1793.83 2625.06 1830.91 2436.35 1905.07 2259.94C1979.23 2083.71 2084.6 1930.61 2221.17 1800.83C2357.75 1671.04 2516.72 1568.98 2698.27 1494.63C2879.82 1420.47 3077.89 1383.39 3292.66 1383.39C3507.44 1383.39 3715.42 1418.63 3892.93 1488.76C4070.44 1559.06 4226.84 1655.07 4362.13 1776.96L3885.03 2258.1C3816.01 2183.94 3732.67 2125.56 3634.65 2083.16C3536.62 2040.75 3422.63 2019.64 3292.66 2019.64C3181.42 2019.64 3077.34 2038.92 2980.59 2077.28C2883.85 2115.83 2801.62 2170.72 2734.06 2242.31C2666.51 2313.91 2613.46 2400 2575.09 2500.78C2536.73 2601.56 2517.45 2712.8 2517.45 2834.69C2517.45 2956.59 2536.73 3075.91 2575.09 3176.69C2613.46 3277.47 2666.51 3363.56 2734.06 3435.15C2801.62 3506.75 2883.12 3562.37 2978.58 3602.2C3074.03 3642.04 3178.66 3661.86 3292.66 3661.86C3425.2 3661.86 3541.21 3641.3 3640.52 3600.18C3739.83 3559.06 3826.66 3501.42 3901 3427.26L4378.1 3904.36C4240.24 4026.25 4084.57 4122.44 3910.92 4192.56C3737.26 4262.69 3533.87 4297.93 3300.55 4297.93L3300.74 4297.38Z" fill="#0C0C0C"/>
<path d="M8015.87 4249.66V1430.93H8727.56V4249.66H8015.87ZM8584.38 4249.66V3637.45H9940.03V4249.66H8584.38Z" fill="#0C0C0C"/>
<path d="M7437.44 2257.55C7361.81 2080.04 7256.63 1924.18 7121.34 1790.36C6986.23 1656.54 6827.08 1553.74 6644.25 1482.15C6461.41 1410.55 6261.14 1374.76 6043.98 1374.76C5826.82 1374.76 5626.54 1410.55 5443.71 1482.15C5260.88 1553.74 5101.72 1656.54 4966.62 1790.36C4831.51 1924.18 4726.14 2079.3 4650.51 2255.53C4575.07 2431.76 4537.25 2623.22 4537.25 2830.1C4537.25 3036.99 4575.62 3229.74 4652.53 3408.54C4729.45 3587.52 4836.1 3743.18 4972.49 3875.72C5109.07 4008.26 5268.77 4111.61 5451.6 4185.77C5634.44 4259.93 5834.53 4297.02 6051.87 4297.02C6269.22 4297.02 6464.72 4260.49 6646.27 4187.61C6827.81 4114.73 6986.23 4011.38 7121.34 3877.56C7256.45 3743.73 7361.81 3588.07 7437.44 3410.37C7513.07 3232.86 7550.71 3040.66 7550.71 2833.96C7550.71 2627.26 7512.89 2435.06 7437.44 2257.37V2257.55ZM5692.08 2419.64L5152.76 2835.8L5692.08 3251.95V3538.87L4954.87 2939.88V2731.71L5692.08 2132.72V2419.64ZM6028.01 3539.42H5793.78L6048.02 2134.56H6278.76L6028.01 3539.42ZM7119.32 2939.88L6382.11 3538.87V3251.95L6921.43 2835.8L6382.11 2419.64V2132.72L7119.32 2731.71V2939.88Z" fill="#0C0C0C"/>
</g>
<defs>
<clipPath id="clip0_35_17">
<rect width="11730" height="12905" fill="white"/>
</clipPath>
</defs>
</svg>
